X:3004
T:Carolan's Concerto
R:March
C:Turlough O'Carolan (1670-1738)
O:Ireland
M:4/4
L:1/8
Q:1/4=120
K:D
(3ABc|"D"d2 dd d2 cB|ABGA F2 A2|"Em"E2 A2 "D"D2 A2|"Bm"Bcde dcBA|
"D"d2 a2 fgaf|efge fgaf|"G"g2 bg fdfa|gfed dcBA|
"G"BdBd gdgd|"D"AdAd f2 fd|"A"e2 ed efed|"F#m"cdBc A2 AG|
"D"FGAF EFGE|FGAF GABG|A2 d2 fedc|d6:|
|:(3ABc|"D"d2 b2 agfe|d2 a2 c2 a2|"G"B2 gB ABcd|"D"ecBA d2 df|
"A"edcB ca a/a/a|"Bm"Bg g/g/g Af f/f/f|"A"edcB ca a/a/a|"G"Bg g/g/g bgbg|
"D"afaf edcB|"F#m"cABG AFGE|"D"DAFA DAFA|"Em"GEBE GEBE|
"D"FAdc BAGF|"G"GABc defg|"D"A2 d2 fedc|d6:|

